app/assets/images/payment_icons/itau.svg

<svg xmlns="http://www.w3.org/2000/svg" role="img" viewBox="0 0 38 24" width="38" height="24" aria-labelledby="pi-itau"><title id="pi-itau">Itau</title><g clip-path="url(#clip0_3326_8153)"><path opacity="0.07" d="M35 0H3C1.3 0 0 1.3 0 3V21C0 22.7 1.4 24 3 24H35C36.7 24 38 22.7 38 21V3C38 1.3 36.6 0 35 0Z" fill="black"/><path d="M35 1C36.1 1 37 1.9 37 3V21C37 22.1 36.1 23 35 23H3C1.9 23 1 22.1 1 21V3C1 1.9 1.9 1 3 1H35Z" fill="#FF6200"/><path d="M7.75708 6.02881C7.76939 6.03893 7.82923 6.05766 7.88879 6.07202C8.00019 6.09876 8.15672 6.17091 8.27393 6.24914C8.36666 6.31089 8.58515 6.54565 8.62816 6.62819C8.64902 6.66936 8.67145 6.70649 8.6776 6.71265C8.68403 6.7188 8.70242 6.7599 8.71897 6.80531C8.7334 6.85044 8.7518 6.89804 8.76226 6.90816C8.78893 6.94741 8.81998 7.19236 8.81998 7.37379C8.81998 7.5509 8.79296 7.75892 8.75802 7.8351C8.6469 8.09045 8.59321 8.17484 8.45323 8.32337C8.32337 8.4572 8.26996 8.49836 8.09285 8.58494C7.94856 8.65701 7.8455 8.69415 7.76324 8.70215C7.69724 8.71042 7.63953 8.72485 7.63337 8.73319C7.61901 8.75802 7.17205 8.75802 7.17205 8.73319C7.17205 8.72485 7.12049 8.71042 7.0545 8.70215C6.9907 8.69415 6.91055 8.67548 6.87554 8.66105C6.83088 8.64095 6.78554 8.62241 6.73959 8.60545C6.70034 8.59109 6.66321 8.57447 6.65705 8.56832C6.6509 8.56011 6.61992 8.54165 6.58491 8.5251C6.46551 8.46547 6.21837 8.19139 6.14629 8.04101C6.10704 7.96066 6.07018 7.88236 6.05979 7.86608C5.98976 7.7259 5.97745 7.08739 6.04317 6.93914C6.06191 6.89988 6.08858 6.83417 6.10301 6.79485C6.11743 6.75587 6.13398 6.71873 6.14014 6.71265C6.14629 6.70649 6.17091 6.66505 6.19361 6.61992C6.23287 6.54353 6.47782 6.27991 6.51283 6.27991C6.52104 6.27991 6.53977 6.26548 6.5542 6.24709C6.59318 6.20373 6.793 6.10704 6.91459 6.07613C6.97224 6.06163 7.03611 6.04105 7.05881 6.03065C7.08151 6.02053 7.13704 6.01014 7.18224 6.00398C7.30376 5.99167 7.73034 6.01014 7.75708 6.02881ZM30.2001 7.46433V8.50445H26.2043V7.11222L26.4268 7.077C26.9191 7.00089 27.226 6.94932 27.2444 6.93702C27.2568 6.92874 27.3577 6.9124 27.4709 6.89804C27.5842 6.88361 27.6873 6.86487 27.6975 6.8566C27.71 6.8486 27.8067 6.82993 27.9139 6.8155C28.0209 6.80319 28.1609 6.77837 28.223 6.76202C28.2846 6.74766 28.4144 6.72489 28.5111 6.71265C28.6081 6.70007 28.7048 6.68167 28.7275 6.67333C28.7502 6.66321 28.853 6.64454 28.954 6.63011C29.0571 6.6178 29.1723 6.59933 29.2115 6.58682C29.2505 6.57663 29.399 6.54784 29.5411 6.52507C29.6833 6.50237 29.8687 6.47173 29.9531 6.45723C30.0375 6.44068 30.1281 6.42837 30.1548 6.42625L30.2001 6.42414V7.46433ZM13.1453 8.38293V9.61679H15.205V11.4501H13.1434L13.1514 13.3595C13.1578 15.4172 13.1535 15.3162 13.2649 15.5694C13.3493 15.7653 13.5881 15.965 13.7941 16.0145C13.8291 16.0227 13.8684 16.0391 13.8849 16.0516C13.9239 16.0824 14.7582 16.0824 14.7953 16.0495C14.8116 16.0372 14.8859 16.0206 14.9641 16.0123L15.1022 15.9979V17.8045L15.0464 17.8291C14.9951 17.8517 14.7582 17.8889 14.4328 17.9279C13.9694 17.9816 13.1247 17.9878 13.0753 17.9361C13.0629 17.926 13.0301 17.9177 12.9991 17.9177C12.9187 17.9177 12.5851 17.8558 12.5602 17.8373C12.5479 17.8291 12.4924 17.8085 12.4347 17.7962C12.3792 17.7818 12.3236 17.7631 12.3111 17.755C12.3009 17.7447 12.2536 17.7262 12.2082 17.7118C12.1628 17.6974 12.1216 17.6787 12.1155 17.6725C12.1093 17.6664 12.0722 17.6437 12.0329 17.6209C11.862 17.5304 11.8107 17.4976 11.7199 17.4211C11.6665 17.3779 11.617 17.341 11.6066 17.341C11.586 17.3389 11.4295 17.1679 11.3061 17.0114C11.2113 16.8899 11.071 16.6572 11.0237 16.5375C11.0072 16.4986 10.9888 16.4614 10.9826 16.4552C10.9744 16.449 10.9538 16.3852 10.9332 16.311C10.9145 16.237 10.8899 16.1587 10.8795 16.136C10.8694 16.1133 10.8445 16.0206 10.8282 15.9301C10.8108 15.844 10.7922 15.7581 10.7724 15.6725C10.758 15.6109 10.7478 14.8856 10.7416 13.5139L10.7334 11.4501H9.54068V9.61679H10.7356V7.54044L10.8755 7.52608C10.9516 7.51801 11.0237 7.50358 11.0341 7.4953C11.0464 7.48703 11.1474 7.46863 11.2607 7.45414C11.3739 7.43978 11.477 7.41892 11.4872 7.41092C11.4995 7.40264 11.6293 7.37987 11.7757 7.36148C11.9239 7.34062 12.0538 7.31819 12.0639 7.30992C12.0762 7.30164 12.1443 7.28721 12.2183 7.28106C12.3151 7.26945 12.4114 7.25368 12.5068 7.2338C12.7272 7.1884 13.1124 7.12849 13.1308 7.13895C13.1391 7.14299 13.1453 7.7034 13.1453 8.38293ZM19.9735 9.421C20.2617 9.43755 20.5874 9.47468 20.6119 9.49315C20.6242 9.50135 20.6737 9.51585 20.7252 9.52201C20.8427 9.54067 21.1291 9.62506 21.3019 9.69502C21.4462 9.7528 21.7676 9.9133 21.8169 9.95474C21.8336 9.96705 21.8704 9.9916 21.8993 10.0041C21.9281 10.0185 22.0189 10.0904 22.099 10.1607C22.1794 10.2328 22.2537 10.2945 22.2638 10.2985C22.2949 10.3129 22.6613 10.758 22.6613 10.7825C22.6613 10.7887 22.6801 10.8219 22.7028 10.8526C22.746 10.9145 22.9293 11.2709 22.9293 11.2936C22.9293 11.3016 22.9458 11.347 22.9683 11.3943C22.9888 11.4418 23.0137 11.514 23.022 11.5529C23.0302 11.5922 23.0447 11.6334 23.0527 11.6456C23.0609 11.6561 23.0796 11.7218 23.0941 11.7899C23.1064 11.8577 23.1229 11.928 23.1291 11.9443C23.1374 11.9609 23.1558 12.0493 23.1724 12.1401C23.197 12.276 23.2031 12.7889 23.2114 15.0587L23.2196 17.8146H20.9725L20.9705 17.5716C20.9683 17.4399 20.9621 17.2483 20.9539 17.1473L20.9415 16.962L20.8818 17.0443C20.7872 17.1701 20.476 17.4665 20.3526 17.5489C20.0825 17.7262 20.0106 17.7692 19.9364 17.7941C19.891 17.8064 19.8314 17.8312 19.8025 17.8474C19.7716 17.8619 19.6955 17.8868 19.6335 17.8991C19.5717 17.9134 19.5101 17.9322 19.4997 17.9402C19.3947 18.0185 18.097 18.0166 17.996 17.9383C17.9858 17.93 17.9116 17.9116 17.8312 17.8972C17.7529 17.8828 17.6602 17.86 17.6253 17.8435C17.5924 17.8291 17.5037 17.7919 17.4318 17.7631C17.349 17.7271 17.2679 17.6872 17.1888 17.6437C17.134 17.6099 17.0783 17.5776 17.0218 17.547C16.9353 17.4994 16.9064 17.4727 16.6716 17.2379C16.4307 16.9969 16.3997 16.9641 16.3997 16.9414C16.3997 16.9331 16.3729 16.8877 16.3422 16.8404C16.3091 16.7932 16.2618 16.7066 16.2369 16.6508C16.2124 16.5933 16.1793 16.5252 16.1648 16.4964C16.1486 16.4675 16.1259 16.3935 16.1114 16.3316C16.097 16.2698 16.0786 16.2081 16.0703 16.1977C16.0476 16.1689 16.0083 15.8763 16.0083 15.7487C16.0083 15.6892 15.9982 15.6293 15.9859 15.617C15.9611 15.5921 15.9671 15.5099 16.031 15.0133C16.0433 14.9166 16.062 14.8279 16.0703 14.8177C16.0785 14.8054 16.0969 14.7518 16.1093 14.6962C16.136 14.5891 16.1919 14.4491 16.2495 14.3438C16.268 14.3089 16.2926 14.2616 16.3051 14.2368C16.3174 14.2101 16.334 14.1895 16.3441 14.1895C16.3524 14.1895 16.3585 14.1772 16.3585 14.1628C16.3585 14.1401 16.5851 13.8455 16.6243 13.8187C16.6325 13.8126 16.647 13.7921 16.6532 13.7714C16.6614 13.7487 16.686 13.7282 16.7087 13.722C16.7314 13.7159 16.7499 13.7033 16.7499 13.695C16.7499 13.6745 17.096 13.4025 17.2133 13.3346C17.2977 13.2831 17.4874 13.1864 17.7633 13.0545C17.8026 13.0339 18.1875 12.9104 18.3566 12.863C18.4183 12.8445 18.5399 12.8196 18.6243 12.8074C18.7087 12.793 18.7891 12.7764 18.7995 12.7684C18.8118 12.7601 18.9352 12.7414 19.0776 12.7291C19.2197 12.7168 19.3947 12.6963 19.4689 12.6858C19.7614 12.6426 20.789 12.6509 20.8983 12.6963C20.9355 12.7125 20.9373 12.7045 20.9229 12.5293C20.9149 12.4283 20.9004 12.3418 20.8922 12.3356C20.8818 12.3294 20.8695 12.2905 20.8612 12.2491C20.8468 12.1729 20.7685 12.0063 20.6945 11.8927C20.6469 11.8209 20.4471 11.6146 20.4244 11.6146C20.4164 11.6146 20.3814 11.5941 20.3462 11.5674C20.2556 11.5014 20.1095 11.4357 20.0208 11.4191C19.9775 11.4108 19.9425 11.3964 19.9425 11.3881C19.9425 11.2976 18.612 11.2832 18.2124 11.3718C18.1608 11.382 18.0414 11.4046 17.9447 11.4212C17.8477 11.4375 17.751 11.4602 17.7283 11.4707C17.7056 11.4808 17.6316 11.4995 17.5635 11.5118C17.4957 11.5241 17.4214 11.5428 17.3987 11.5529C17.376 11.5633 17.2937 11.586 17.2154 11.6045C17.1372 11.623 17.0629 11.6435 17.0506 11.6539C17.0383 11.6622 16.9828 11.6827 16.9251 11.6972C16.8695 11.7116 16.8118 11.7322 16.8014 11.7405C16.7891 11.7487 16.7335 11.7671 16.6777 11.7816C16.6203 11.7939 16.5399 11.8227 16.4988 11.8433C16.4555 11.866 16.4162 11.8826 16.4101 11.8826C16.4039 11.8826 16.3997 11.4519 16.3997 10.9268C16.3997 10.1831 16.406 9.96698 16.4266 9.95043C16.4411 9.93812 16.4988 9.91761 16.5543 9.90318C16.612 9.89087 16.6676 9.8722 16.6777 9.86393C16.6903 9.85565 16.7581 9.8311 16.8324 9.81237C16.9064 9.79178 16.9764 9.76928 16.9868 9.76108C16.9991 9.75061 17.0629 9.73407 17.1289 9.71991C17.197 9.70555 17.2671 9.68681 17.2833 9.67662C17.302 9.66842 17.3864 9.64564 17.4708 9.62725C17.5365 9.61444 17.6017 9.60001 17.6666 9.58396C17.6891 9.57753 17.8045 9.55914 17.9239 9.54252C18.0436 9.52625 18.1691 9.50354 18.2019 9.49315C18.3216 9.45622 19.4008 9.38818 19.6439 9.40261C19.7117 9.40657 19.8603 9.41485 19.9735 9.421ZM8.61373 13.7159V17.8146H6.20401V9.61679H8.61373V13.7159ZM26.8221 12.1708C26.8221 14.6097 26.8325 15.0814 26.8819 15.1474C26.8921 15.1575 26.9046 15.1986 26.9129 15.238C26.9418 15.3923 27.0756 15.617 27.2278 15.7693C27.3082 15.8518 27.3988 15.9239 27.4276 15.9319C27.4586 15.9384 27.4813 15.9507 27.4813 15.9589C27.4813 15.9669 27.5535 15.9958 27.6419 16.0246C27.7739 16.066 27.8438 16.074 28.0498 16.074C28.1941 16.074 28.3196 16.0639 28.3484 16.0516C28.3751 16.0372 28.439 16.0166 28.4905 16.0022C28.5421 15.9878 28.6348 15.9445 28.6965 15.9031C28.8119 15.8291 29.0261 15.6314 29.0261 15.5983C29.0261 15.5882 29.055 15.5428 29.0879 15.4995C29.1228 15.4541 29.1498 15.4089 29.1498 15.3966C29.1498 15.384 29.1683 15.3408 29.1888 15.2996C29.2115 15.2585 29.2361 15.1885 29.2444 15.1452C29.2506 15.0998 29.2649 15.0547 29.2754 15.0443C29.327 14.9783 29.3352 14.5624 29.3352 12.1462V9.61679H31.7449V17.8147H30.6039C29.7122 17.8147 29.4565 17.8085 29.4443 17.7879C29.436 17.7756 29.4258 17.5798 29.4216 17.3554C29.4175 17.133 29.4072 16.9497 29.3991 16.9497C29.3909 16.9497 29.366 16.9743 29.3414 17.0052C29.226 17.1618 29.0447 17.3389 28.7605 17.5737C28.7193 17.6065 28.6349 17.6519 28.4495 17.7425C28.3651 17.7836 28.2724 17.8312 28.2435 17.8456C28.2147 17.86 28.1364 17.8827 28.0683 17.8972C28.0004 17.9116 27.9406 17.93 27.9344 17.9383C27.9139 17.9691 27.5493 18 27.1889 18C26.8347 18 26.5462 17.9754 26.4618 17.9402C26.4391 17.93 26.3609 17.9052 26.2866 17.8868C26.2126 17.8683 26.1445 17.8435 26.1322 17.8352C26.1221 17.8269 26.0726 17.8063 26.0251 17.7919C25.9756 17.7796 25.9367 17.7612 25.9367 17.7529C25.9367 17.7447 25.8995 17.7263 25.8541 17.7118C25.809 17.6974 25.7718 17.6787 25.7718 17.6704C25.7718 17.6624 25.7491 17.6458 25.7224 17.6335C25.5453 17.5531 25.1435 17.1762 24.9747 16.9331C24.8716 16.7849 24.7129 16.4881 24.6801 16.3791C24.6678 16.3358 24.643 16.272 24.6285 16.2389C24.6141 16.2039 24.5896 16.1299 24.577 16.0741C24.5647 16.0167 24.5462 15.9567 24.5358 15.9362C24.5257 15.9175 24.507 15.8208 24.4947 15.7199C24.4824 15.621 24.4597 15.52 24.4474 15.4973C24.4287 15.4666 24.4205 14.7312 24.4164 12.5354L24.4103 9.61679H26.8222L26.8221 12.1708Z" fill="white"/><path d="M19.7038 14.1712C19.6032 14.1814 19.5 14.1979 19.4773 14.2081C19.4546 14.2207 19.3806 14.2391 19.3125 14.2535C19.2468 14.2658 19.1581 14.2906 19.1169 14.3091C18.8078 14.4429 18.6575 14.5316 18.5547 14.6387C18.4558 14.7418 18.3567 14.9334 18.3404 15.0528C18.3361 15.0939 18.3217 15.1475 18.3095 15.17C18.2868 15.2176 18.295 15.3637 18.3322 15.5552C18.3733 15.7633 18.5381 16.0168 18.6842 16.0929C18.9439 16.2268 18.9933 16.2473 19.1376 16.2701C19.3969 16.309 19.8914 16.2866 19.9985 16.2289C20.0169 16.2185 20.0933 16.1835 20.1673 16.1506C20.2416 16.1157 20.3383 16.0598 20.3837 16.0248C20.4291 15.9898 20.4804 15.9487 20.4991 15.9342C20.6163 15.8458 20.8328 15.4873 20.8616 15.3391C20.8677 15.3019 20.8843 15.2587 20.8966 15.2421C20.9109 15.2236 20.9212 15.034 20.9254 14.6942L20.9336 14.1752L20.8223 14.1629C20.6719 14.1443 19.9306 14.1506 19.7038 14.1712Z" fill="#FF6200"/></g><defs><clipPath id="pi-clip0_3326_8153"><rect width="38" height="24" fill="white"/></clipPath></defs></svg>

<svg xmlns="http://www.w3.org/2000/svg" width="38" height="24" aria-labelledby="pi-itau"><g clip-path="url(#clip0_3326_8153)"><path d="M35 0H3C1.3 0 0 1.3 0 3v18c0 1.7 1.4 3 3 3h32c1.7 0 3-1.3 3-3V3c0-1.7-1.4-3-3-3Z" opacity=".07"/><path fill="#FF6200" d="M35 1c1.1 0 2 .9 2 2v18c0 1.1-.9 2-2 2H3c-1.1 0-2-.9-2-2V3c0-1.1.9-2 2-2h32Z"/><path fill="#fff" d="M7.757 6.029c.012.01.072.029.132.043.111.027.268.099.385.177.093.062.311.297.354.38.021.04.043.077.05.084a.465.465 0 0 1 .041.092.399.399 0 0 0 .043.103c.027.04.058.284.058.466 0 .177-.027.385-.062.461-.111.255-.165.34-.305.488-.13.134-.183.175-.36.262-.144.072-.247.11-.33.117a.383.383 0 0 0-.13.031c-.014.025-.461.025-.461 0 0-.008-.052-.023-.117-.03a.876.876 0 0 1-.18-.042 2.119 2.119 0 0 0-.135-.056.415.415 0 0 1-.083-.037.288.288 0 0 0-.072-.043c-.12-.06-.367-.334-.439-.484-.039-.08-.076-.159-.086-.175-.07-.14-.083-.779-.017-.927.019-.04.046-.105.06-.144a.417.417 0 0 1 .037-.082.681.681 0 0 0 .054-.093c.039-.076.284-.34.319-.34.008 0 .027-.015.041-.033.04-.043.239-.14.36-.17.058-.015.122-.036.145-.046a.608.608 0 0 1 .123-.027c.122-.012.548.006.575.025ZM30.2 7.464v1.04h-3.996V7.112l.223-.035c.492-.076.799-.128.817-.14.013-.008.114-.025.227-.039.113-.014.216-.033.227-.041a1.28 1.28 0 0 1 .216-.042 2.79 2.79 0 0 0 .309-.053c.062-.014.191-.037.288-.05a1.66 1.66 0 0 0 .216-.039c.023-.01.126-.028.227-.043a2.04 2.04 0 0 0 .258-.043c.038-.01.187-.04.33-.062.141-.023.327-.053.411-.068.085-.016.175-.029.202-.03l.045-.003v1.04Zm-17.055.919v1.234h2.06v1.833h-2.062l.008 1.91c.007 2.057.002 1.956.114 2.21a.873.873 0 0 0 .53.445.29.29 0 0 1 .09.037c.039.03.873.03.91-.003a.543.543 0 0 1 .17-.037l.137-.014v1.807l-.056.024c-.05.023-.288.06-.613.099-.464.054-1.308.06-1.358.008a.144.144 0 0 0-.076-.018c-.08 0-.414-.062-.439-.08a.534.534 0 0 0-.125-.042.699.699 0 0 1-.124-.041.402.402 0 0 0-.103-.043.398.398 0 0 1-.092-.04.862.862 0 0 0-.083-.051 1.441 1.441 0 0 1-.313-.2.552.552 0 0 0-.113-.08c-.021-.002-.177-.173-.3-.33a2.548 2.548 0 0 1-.283-.473.484.484 0 0 0-.041-.083.669.669 0 0 1-.05-.144 1.502 1.502 0 0 0-.053-.175 1.367 1.367 0 0 1-.052-.206 9.447 9.447 0 0 0-.056-.258c-.014-.061-.024-.786-.03-2.158l-.009-2.064H9.541V9.617h1.195V7.54l.14-.014a.625.625 0 0 0 .158-.03c.012-.009.113-.027.227-.042a1.21 1.21 0 0 0 .226-.043 1.99 1.99 0 0 1 .289-.05c.148-.02.278-.043.288-.051a.565.565 0 0 1 .154-.029c.097-.012.193-.027.289-.047.22-.046.605-.106.624-.095.008.004.014.564.014 1.244Zm6.829 1.038c.288.017.613.054.638.072a.37.37 0 0 0 .113.029c.118.019.404.103.577.173a3.883 3.883 0 0 1 .597.31c.03.013.12.085.2.156.08.072.155.133.165.138a4.3 4.3 0 0 1 .397.484 3.97 3.97 0 0 1 .268.511c0 .008.017.053.04.1.02.048.045.12.053.159.008.04.023.08.03.093.009.01.028.076.042.144.012.068.029.138.035.154.008.017.027.105.043.196.025.136.031.649.04 2.919l.008 2.756h-2.247l-.002-.243a8.33 8.33 0 0 0-.017-.425l-.012-.185-.06.082a3.485 3.485 0 0 1-.53.505c-.27.177-.341.22-.416.245a.71.71 0 0 0-.134.053.917.917 0 0 1-.168.052.668.668 0 0 0-.134.041c-.105.078-1.403.077-1.504-.002a.79.79 0 0 0-.165-.04 1.14 1.14 0 0 1-.206-.055 8.588 8.588 0 0 0-.193-.08 2.923 2.923 0 0 1-.41-.216c-.087-.048-.116-.074-.35-.31-.241-.24-.272-.273-.272-.296a.55.55 0 0 0-.058-.1 1.384 1.384 0 0 1-.105-.19 3.085 3.085 0 0 0-.072-.155.836.836 0 0 1-.054-.164.656.656 0 0 0-.04-.134c-.023-.03-.063-.322-.063-.45 0-.059-.01-.119-.022-.131-.025-.025-.019-.107.045-.604a.91.91 0 0 1 .04-.195.553.553 0 0 0 .038-.122c.027-.107.083-.247.14-.352l.056-.107c.012-.027.029-.047.04-.047.007 0 .014-.013.014-.027 0-.023.226-.318.265-.344a.11.11 0 0 0 .03-.048.088.088 0 0 1 .055-.049c.022-.006.04-.019.04-.027 0-.02.347-.293.464-.36.085-.052.274-.149.55-.28.04-.021.424-.145.594-.192.061-.018.183-.043.267-.056a.991.991 0 0 0 .175-.039 1.63 1.63 0 0 1 .279-.039c.142-.012.317-.033.39-.043.293-.043 1.321-.035 1.43.01.038.017.04.008.025-.167a.747.747 0 0 0-.03-.193c-.011-.007-.024-.046-.032-.087a1.343 1.343 0 0 0-.166-.356c-.048-.072-.248-.278-.27-.278a.289.289 0 0 1-.079-.048.971.971 0 0 0-.325-.148c-.044-.008-.079-.023-.079-.03 0-.091-1.33-.106-1.73-.017-.051.01-.17.033-.267.05a1.414 1.414 0 0 0-.217.049c-.022.01-.096.028-.165.04a1.055 1.055 0 0 0-.164.042c-.023.01-.105.033-.184.051a.814.814 0 0 0-.164.05.616.616 0 0 1-.126.043.585.585 0 0 0-.124.044.688.688 0 0 1-.123.04.907.907 0 0 0-.18.062.492.492 0 0 1-.088.04c-.006 0-.01-.431-.01-.956 0-.744.006-.96.027-.977a.484.484 0 0 1 .127-.047.492.492 0 0 0 .124-.04.851.851 0 0 1 .154-.05.973.973 0 0 0 .155-.052.597.597 0 0 1 .142-.041.81.81 0 0 0 .154-.043c.019-.009.103-.031.188-.05a3.903 3.903 0 0 1 .453-.085c.12-.016.245-.038.278-.049.12-.037 1.199-.105 1.442-.09l.33.018Zm-11.36 4.295v4.099h-2.41V9.617h2.41v4.099Zm18.208-1.545c0 2.439.01 2.91.06 2.976.01.01.023.052.03.091.03.154.164.379.316.531.08.083.17.155.2.163.03.006.053.019.053.027s.072.037.16.066c.133.041.203.049.409.049.144 0 .27-.01.298-.022a.915.915 0 0 1 .143-.05.873.873 0 0 0 .206-.099c.115-.074.33-.272.33-.305 0-.01.028-.055.06-.099a.346.346 0 0 0 .063-.102c0-.013.018-.056.039-.097a.63.63 0 0 0 .055-.155.248.248 0 0 1 .031-.1c.052-.067.06-.483.06-2.899v-2.53h2.41v8.199h-1.141c-.892 0-1.148-.007-1.16-.027a3.562 3.562 0 0 1-.022-.433 2.813 2.813 0 0 0-.023-.405c-.008 0-.033.024-.058.055-.115.157-.296.334-.58.569a2.076 2.076 0 0 1-.311.168l-.206.104a.988.988 0 0 1-.176.051.48.48 0 0 0-.134.041c-.02.031-.385.062-.745.062-.354 0-.643-.025-.727-.06-.023-.01-.101-.035-.175-.053a.824.824 0 0 1-.155-.052.503.503 0 0 0-.107-.043c-.05-.012-.088-.03-.088-.04 0-.007-.038-.026-.083-.04-.045-.015-.082-.033-.082-.042 0-.008-.023-.024-.05-.037-.177-.08-.579-.457-.747-.7a2.994 2.994 0 0 1-.295-.554 1.33 1.33 0 0 0-.052-.14 1.247 1.247 0 0 1-.051-.165.764.764 0 0 0-.041-.138 1.135 1.135 0 0 1-.041-.216 1.028 1.028 0 0 0-.048-.223c-.018-.03-.026-.766-.03-2.962l-.007-2.918h2.412v2.554Z"/><path fill="#FF6200" d="M19.704 14.171c-.1.01-.204.027-.227.037a.91.91 0 0 1-.165.046 1.084 1.084 0 0 0-.195.055c-.31.134-.46.223-.562.33a.91.91 0 0 0-.215.414.394.394 0 0 1-.03.117c-.023.048-.015.194.022.385.041.208.206.462.352.538.26.134.31.154.454.177.259.039.753.017.86-.041.019-.01.095-.046.17-.078.074-.035.17-.091.216-.126l.115-.09c.117-.09.334-.448.363-.596a.275.275 0 0 1 .035-.097c.014-.018.024-.208.028-.548l.009-.519-.112-.012c-.15-.019-.891-.012-1.118.008Z"/></g></svg>
